X:0494
T:Big Bowwow.
T:New Set.
M:6/8
L:1/8
Q:3/8=120
I: :: ::
Z:Jack Campin * www.campin.me.uk * 2009
K:G
c|B2G GAB|c2c c2d|TB2G GAB|A2A A2
c|B2G GAB|c2d e2g| edc BcA|G2G G2::
f|gag gdB|c2c c2e| gag gdB|A2A A2
f|gag gdB|c2d e2g| edc BcA|G2G G2:|

